packages/core/src/svgs/tokens/branded/STEP.svg

<svg width="24" height="24" viewBox="0 0 24 24" fill="none" xmlns="http://www.w3.org/2000/svg">
<path fill-rule="evenodd" clip-rule="evenodd" d="M20.8823 16.9988L20.8818 7.00995L11.9985 2.00995V12.0033L3.11621 17.001L12.0012 22L20.8769 17.0056L20.8823 17.0088V17.0027L20.8851 17.001L20.8823 16.9988Z" fill="#64C557"/>
<path d="M3.11035 7.0094L12.0031 2.0094V12.0089L3.11035 17.0088V7.0094Z" fill="#118AB2"/>
<path d="M12.0043 2L20.8889 6.9989L18.1111 8.80335L9.22217 3.575L12.0043 2Z" fill="#00F8B7"/>
<path d="M18.1111 8.52442V11.9056L9.22217 6.86496V3.56885L18.1111 8.52442Z" fill="#09BD8E"/>
<path d="M9.21952 6.86493L18.1106 11.8917L14.7773 13.771L5.89062 8.73993L9.21952 6.86493Z" fill="#FFE3A3"/>
<path d="M14.7754 13.771V17.1349L5.88867 11.9461V8.73328L14.7754 13.771Z" fill="#FFBB1D"/>
<path d="M5.88868 11.9427L14.7771 17.0887L12.0009 18.6666L3.11035 13.6677L5.88868 11.9427Z" fill="#FF965E"/>
<path d="M11.9992 18.6667V22L3.11035 16.9967V13.6634L11.9992 18.6667Z" fill="#D94C00"/>
<path d="M18.1138 8.53897L20.8894 7.02008V17.0189L18.1138 18.5613V8.53897Z" fill="#06D6A0"/>
<path d="M14.7756 13.7711L18.1111 11.885V18.5634L14.7749 20.4255L14.7756 13.7711Z" fill="#FFD166"/>
<path d="M12 18.6644L14.775 17.0849V20.4433L12 21.9977V18.6644Z" fill="#F3722C"/>
</svg>

<svg xmlns="http://www.w3.org/2000/svg" width="24" height="24" fill="none" viewBox="0 0 24 24">
    <path fill="#64C557" fill-rule="evenodd" d="M20.882 16.999V7.01l-8.884-5v9.993l-8.882 4.998L12.001 22l8.876-4.994.005.003v-.006l.003-.002z" clip-rule="evenodd"/>
    <path fill="#118AB2" d="m3.11 7.01 8.893-5v9.999l-8.893 5z"/>
    <path fill="#00F8B7" d="m12.004 2 8.885 4.999-2.778 1.804-8.889-5.228z"/>
    <path fill="#09BD8E" d="M18.111 8.524v3.382L9.222 6.865V3.569z"/>
    <path fill="#FFE3A3" d="m9.22 6.865 8.89 5.027-3.333 1.879L5.891 8.74z"/>
    <path fill="#FFBB1D" d="M14.775 13.771v3.364L5.89 11.946V8.733z"/>
    <path fill="#FF965E" d="m5.889 11.943 8.888 5.146-2.776 1.578-8.89-5z"/>
    <path fill="#D94C00" d="M12 18.667V22l-8.89-5.003v-3.334z"/>
    <path fill="#06D6A0" d="m18.114 8.539 2.775-1.519v9.999l-2.775 1.542z"/>
    <path fill="#FFD166" d="m14.776 13.771 3.335-1.886v6.678l-3.336 1.863z"/>
    <path fill="#F3722C" d="m12 18.664 2.775-1.58v3.36L12 21.997z"/>
</svg>
